X: 16958
T: Hawthorn Hedge, The
R: jig
M: 6/8
K: Dmajor
|:~f3 faf|edB B2 d|AFE E3|AFE E2 g|
~f3 faf|edB BdB|AFE EDB,|1 ~A,3 Dde:|2 ~A,3 D2 D||
|:A,DD FAA|d/e/fd edB|AFA BAF|dAF EDB,|
A,DD FAA|d/e/fd edB|AFA B/c/de|1 fdc d2 d:|2 fdc dag||

